X:1
T:Castleford, CM
T:Castleford, CM
T:Samuel Sebastian Wesley, 1864
T:Public Domain Courtesy of the Cyber Hymnal™
C:Samuel Sebastian Wesley, 1864
Z:Public Domain
Z:Courtesy of the Cyber Hymnal™
%%score ( 1 2 ) ( 3 4 )
L:1/8
Q:1/4=110
M:4/4
K:F
V:1 treble 
V:2 treble 
V:3 bass 
V:4 bass 
V:1
 F2 | [FA]2 [EG]2 F2 [Fd]2 | [Fc]2 B2 [FA]2 [FA]2 | [Fc]2 [Af]2 [Ge]2 d2 | [Ec]6 [Ec]2 | %5
 [FA]2 [_EF]2 [Dd]2 [Fc]2 | (de) [Af]2 [Ge]2 [Ec]2 | [Ff]2 (FB) [FA]2 [EG]2 | F6 |] %9
V:2
 F2 | x4 F2 x2 | x2 (FE) x4 | x6 (GF) | x8 | x8 | B2 x6 | x2 F2 x4 | F6 |] %9
V:3
 [F,A,]2 | [F,C]2 (CB,) [D,A,]2 [B,,G,]2 | [C,A,]2 [C,C]2 [F,C]2 [F,C]2 | %3
 [A,C]2 [F,C]2 [G,C]2 [G,=B,]2 | [C,C]6 [C,G,]2 | [D,F,]2 [C,A,]2 [B,,B,]2 [C,C]2 | %6
 [G,,C]2 [F,,C]2 [C,C]2 [C,C]2 | [A,,C]2 [B,,D]2 [C,C]2 (CB,) | [F,A,]6 |] %9
V:4
 x2 | x2 C,2 x4 | x8 | x8 | x8 | x8 | x8 | x6 C,2 | x6 |] %9

